src/assets/icons/hourglass.svg

<svg width="14" height="14" viewBox="0 0 14 14" fill="none" xmlns="http://www.w3.org/2000/svg">
<g id="hourglass">
<g clip-path="url(#clip0_156_4694)">
<path id="Vector" fill-rule="evenodd" clip-rule="evenodd" d="M2.00008 1.2001H2.53193C2.55205 1.27207 2.57495 1.35113 2.60085 1.4366C2.73231 1.8704 2.94165 2.47196 3.25528 3.1515C3.80472 4.34194 4.68557 5.79615 6.05052 7C4.68557 8.20385 3.80472 9.65806 3.25528 10.8485C2.94165 11.528 2.73231 12.1296 2.60085 12.5634C2.57495 12.6489 2.55205 12.7279 2.53193 12.7999H2.00008C1.66871 12.7999 1.40009 13.0685 1.40009 13.3999C1.40009 13.7313 1.66871 13.9999 2.00008 13.9999H2.98893C2.9968 14 3.00464 14 3.01246 13.9999H10.9875C10.9953 14 11.0032 14 11.011 13.9999H11.9999C12.3313 13.9999 12.5999 13.7313 12.5999 13.3999C12.5999 13.0685 12.3313 12.7999 11.9999 12.7999H11.4681C11.4479 12.7279 11.425 12.6489 11.3991 12.5634C11.2677 12.1296 11.0583 11.528 10.7447 10.8485C10.1953 9.65806 9.31442 8.20385 7.94947 7C9.31442 5.79615 10.1953 4.34194 10.7447 3.1515C11.0583 2.47196 11.2677 1.8704 11.3991 1.4366C11.425 1.35113 11.4479 1.27207 11.4681 1.2001H11.9999C12.3313 1.2001 12.5999 0.931471 12.5999 0.600106C12.5999 0.26874 12.3313 0.000115694 11.9999 0.000115694H11.011C11.0032 -3.8961e-05 10.9953 -3.81645e-05 10.9875 0.000115694H3.01245C3.00464 -3.81661e-05 2.9968 -3.89626e-05 2.98894 0.000115694H2.00008C1.66871 0.000115694 1.40009 0.26874 1.40009 0.600106C1.40009 0.931471 1.66871 1.2001 2.00008 1.2001ZM10.2163 1.2001H3.7837C3.90357 1.58095 4.08471 2.08509 4.34481 2.64864C4.87233 3.7916 5.71227 5.15234 6.99999 6.23408C8.28771 5.15234 9.12765 3.7916 9.65517 2.64864C9.91527 2.08509 10.0964 1.58095 10.2163 1.2001ZM6.99999 7.76592C5.71228 8.84766 4.87233 10.2084 4.34481 11.3514C4.08471 11.9149 3.90357 12.419 3.7837 12.7999H10.2163C10.0964 12.419 9.91527 11.9149 9.65517 11.3514C9.12765 10.2084 8.28771 8.84766 6.99999 7.76592Z" fill="black"/>
</g>
</g>
<defs>
<clipPath id="clip0_156_4694">
<rect width="14" height="14" fill="white"/>
</clipPath>
</defs>
</svg>

<svg xmlns="http://www.w3.org/2000/svg" fill="none" viewBox="0 0 14 14"><g clip-path="url(#a)"><path fill="#000" fill-rule="evenodd" d="M2 1.2h.532l.069.237c.131.433.34 1.035.654 1.715.55 1.19 1.43 2.644 2.796 3.848-1.365 1.204-2.246 2.658-2.796 3.848a13.4 13.4 0 0 0-.723 1.952H2A.6.6 0 1 0 2 14h10a.6.6 0 1 0 0-1.2h-.532l-.069-.237a13 13 0 0 0-.654-1.715c-.55-1.19-1.43-2.644-2.796-3.848 1.365-1.204 2.246-2.658 2.796-3.848a13.4 13.4 0 0 0 .723-1.952H12A.6.6 0 1 0 12 0H2a.6.6 0 1 0 0 1.2m8.216 0H3.784c.12.381.3.885.56 1.449C4.873 3.792 5.713 5.152 7 6.234 8.288 5.152 9.128 3.792 9.655 2.65c.26-.564.441-1.068.561-1.449M7 7.766c-1.288 1.082-2.128 2.442-2.655 3.585-.26.564-.441 1.068-.561 1.449h6.432c-.12-.381-.3-.885-.56-1.449C9.127 10.208 8.287 8.848 7 7.766" clip-rule="evenodd"/></g><defs><clipPath id="a"><path fill="#fff" d="M0 0h14v14H0z"/></clipPath></defs></svg>
